svg/color/dxf.svg

<?xml version="1.0" encoding="UTF-8" ?>
<!DOCTYPE svg PUBLIC "-//W3C//DTD SVG 1.1//EN" "http://www.w3.org/Graphics/SVG/1.1/DTD/svg11.dtd">
<svg width="250pt" height="250pt" viewBox="0 0 250 250" version="1.1" xmlns="http://www.w3.org/2000/svg">
<g id="#ffffffff">
<path fill="#ffffff" opacity="1.00" d=" M 0.00 0.00 L 250.00 0.00 L 250.00 250.00 L 0.00 250.00 L 0.00 0.00 M 97.08 4.61 C 101.41 15.89 105.87 27.12 110.06 38.46 C 119.99 36.97 130.16 36.82 140.06 38.59 C 172.77 43.97 200.94 69.60 209.46 101.61 C 214.77 120.59 213.38 141.36 205.58 159.47 C 198.22 176.72 185.16 191.45 168.93 200.85 C 151.82 210.85 131.18 214.84 111.61 211.59 C 106.95 222.82 102.91 234.31 98.33 245.58 C 130.02 252.97 164.56 246.63 191.80 228.88 C 217.11 212.66 236.14 186.91 244.08 157.90 C 252.10 129.21 249.22 97.62 236.03 70.90 C 224.07 46.26 203.65 25.86 179.03 13.88 C 153.87 1.47 124.37 -1.84 97.08 4.61 M 47.58 28.66 C 22.97 48.31 6.31 77.68 2.38 108.96 C -1.05 134.77 3.95 161.64 16.60 184.42 C 27.76 204.62 44.56 221.92 64.95 232.84 C 69.06 221.47 73.67 210.29 77.83 198.95 C 61.95 188.86 49.48 173.52 42.85 155.91 C 35.71 137.12 35.38 115.83 41.87 96.81 C 48.09 78.56 60.45 62.37 76.66 51.88 C 72.72 40.47 67.92 29.35 63.86 17.97 C 57.86 20.51 52.76 24.77 47.58 28.66 Z" />
</g>
<g id="#3984ffff">
<path fill="#3984ff" opacity="1.00" d=" M 97.08 4.61 C 124.37 -1.84 153.87 1.47 179.03 13.88 C 203.65 25.86 224.07 46.26 236.03 70.90 C 249.22 97.62 252.10 129.21 244.08 157.90 C 236.14 186.91 217.11 212.66 191.80 228.88 C 164.56 246.63 130.02 252.97 98.33 245.58 C 102.91 234.31 106.95 222.82 111.61 211.59 C 131.18 214.84 151.82 210.85 168.93 200.85 C 185.16 191.45 198.22 176.72 205.58 159.47 C 213.38 141.36 214.77 120.59 209.46 101.61 C 200.94 69.60 172.77 43.97 140.06 38.59 C 130.16 36.82 119.99 36.97 110.06 38.46 C 105.87 27.12 101.41 15.89 97.08 4.61 Z" />
</g>
<g id="#00b663ff">
<path fill="#00b663" opacity="1.00" d=" M 47.58 28.66 C 52.76 24.77 57.86 20.51 63.86 17.97 C 67.92 29.35 72.72 40.47 76.66 51.88 C 60.45 62.37 48.09 78.56 41.87 96.81 C 35.38 115.83 35.71 137.12 42.85 155.91 C 49.48 173.52 61.95 188.86 77.83 198.95 C 73.67 210.29 69.06 221.47 64.95 232.84 C 44.56 221.92 27.76 204.62 16.60 184.42 C 3.95 161.64 -1.05 134.77 2.38 108.96 C 6.31 77.68 22.97 48.31 47.58 28.66 Z" />
</g>
</svg>

<?xml version="1.0" encoding="utf-8"?>
<!-- Generator: Adobe Illustrator 26.0.3, SVG Export Plug-In . SVG Version: 6.00 Build 0)  -->
<svg version="1.1" id="Layer_1" xmlns="http://www.w3.org/2000/svg" xmlns:xlink="http://www.w3.org/1999/xlink" x="0px" y="0px"
	 viewBox="0 0 250 250" style="enable-background:new 0 0 250 250;" xml:space="preserve">
<style type="text/css">
	.st0{fill:#3984FF;}
	.st1{fill:#00B663;}
</style>
<g id="_x23_3984ffff">
	<path class="st0" d="M97.1,4.6c27.3-6.5,56.8-3.1,81.9,9.3c24.6,12,45,32.4,57,57c13.2,26.7,16.1,58.3,8.1,87
		c-7.9,29-27,54.8-52.3,71c-27.2,17.8-61.8,24.1-93.5,16.7c4.6-11.3,8.6-22.8,13.3-34c19.6,3.2,40.2-0.7,57.3-10.7
		c16.2-9.4,29.3-24.1,36.7-41.4c7.8-18.1,9.2-38.9,3.9-57.9c-8.5-32-36.7-57.6-69.4-63c-9.9-1.8-20.1-1.6-30-0.1
		C105.9,27.1,101.4,15.9,97.1,4.6z"/>
</g>
<g id="_x23_00b663ff">
	<path class="st1" d="M47.6,28.7c5.2-3.9,10.3-8.1,16.3-10.7c4.1,11.4,8.9,22.5,12.8,33.9C60.5,62.4,48.1,78.6,41.9,96.8
		c-6.5,19-6.2,40.3,1,59.1c6.6,17.6,19.1,32.9,35,43c-4.2,11.3-8.8,22.5-12.9,33.9c-20.4-10.9-37.2-28.2-48.3-48.4
		C4,161.6-1,134.8,2.4,109C6.3,77.7,23,48.3,47.6,28.7z"/>
</g>
</svg>
